flaticon/medical/molar-8.svg

<svg xmlns="http://www.w3.org/2000/svg" width="32" height="32" viewBox="0 0 24 24">
    <path d="M 22.105469 10.800781 L 21.210938 10.800781 C 19.441406 10.800781 17.820312 11.796875 17.003906 13.332031 C 16.792969 13.003906 16.550781 12.695312 16.269531 12.414062 C 15.890625 12.03125 15.484375 11.453125 15.050781 10.84375 C 14.058594 9.445312 13.035156 8 11.800781 8 C 10.601562 8 9.613281 9.5 8.660156 10.949219 C 8.230469 11.597656 7.828125 12.210938 7.453125 12.609375 C 7.199219 12.878906 6.988281 13.171875 6.796875 13.480469 C 5.722656 11.816406 3.878906 10.800781 1.886719 10.800781 C 1.40625 10.800781 0.96875 11.023438 0.6875 11.410156 C 0.402344 11.796875 0.324219 12.28125 0.472656 12.738281 L 3.773438 22.972656 C 3.972656 23.585938 4.539062 24 5.1875 24 L 18.804688 24 C 19.453125 24 20.019531 23.585938 20.21875 22.972656 L 23.519531 12.742188 C 23.667969 12.28125 23.589844 11.796875 23.308594 11.410156 C 23.023438 11.023438 22.585938 10.800781 22.105469 10.800781 Z M 8.035156 13.15625 C 8.457031 12.707031 8.878906 12.066406 9.328125 11.386719 C 10.085938 10.234375 11.03125 8.800781 11.800781 8.800781 C 12.621094 8.800781 13.5625 10.132812 14.398438 11.304688 C 14.847656 11.945312 15.277344 12.546875 15.703125 12.976562 C 16.136719 13.414062 16.472656 13.929688 16.710938 14.484375 C 16.738281 14.542969 16.757812 14.605469 16.78125 14.664062 C 16.828125 14.78125 16.871094 14.902344 16.90625 15.027344 C 16.921875 15.082031 16.941406 15.136719 16.957031 15.191406 C 17 15.355469 17.035156 15.519531 17.058594 15.6875 C 17.070312 15.746094 17.074219 15.800781 17.082031 15.859375 C 17.101562 16 17.113281 16.144531 17.117188 16.289062 C 17.121094 16.332031 17.125 16.375 17.125 16.414062 C 17.125 16.59375 17.117188 16.773438 17.101562 16.953125 C 17.097656 17 17.089844 17.046875 17.085938 17.09375 C 17.0625 17.28125 17.03125 17.464844 16.988281 17.652344 C 16.902344 18.003906 16.820312 18.347656 16.746094 18.683594 L 16.671875 19.015625 C 16.46875 19.949219 16.273438 20.832031 15.824219 21.617188 C 15.65625 21.917969 15.546875 21.957031 15.550781 21.960938 C 15.515625 21.953125 15.226562 21.839844 14.765625 20.417969 C 14.695312 20.207031 14.636719 19.984375 14.578125 19.757812 C 14.34375 18.859375 14.078125 17.84375 13.148438 17.289062 C 12.105469 16.667969 10.9375 17.042969 10.097656 18.269531 C 9.644531 18.929688 9.398438 19.65625 9.160156 20.359375 C 9.066406 20.628906 8.972656 20.902344 8.871094 21.167969 C 8.722656 21.542969 8.597656 21.828125 8.355469 21.980469 C 8.265625 21.921875 8.085938 21.703125 7.785156 20.972656 L 7.753906 20.898438 C 7.371094 19.96875 7.054688 18.894531 6.792969 17.625 C 6.753906 17.445312 6.730469 17.265625 6.714844 17.085938 C 6.710938 17.042969 6.707031 17 6.703125 16.960938 C 6.691406 16.78125 6.683594 16.605469 6.691406 16.429688 C 6.691406 16.40625 6.695312 16.378906 6.695312 16.355469 C 6.703125 16.207031 6.71875 16.0625 6.738281 15.917969 C 6.746094 15.859375 6.753906 15.796875 6.765625 15.734375 C 6.789062 15.605469 6.816406 15.480469 6.847656 15.355469 C 6.875 15.246094 6.90625 15.136719 6.941406 15.03125 C 6.964844 14.96875 6.984375 14.90625 7.007812 14.847656 C 7.042969 14.746094 7.082031 14.644531 7.125 14.546875 C 7.347656 14.042969 7.652344 13.570312 8.035156 13.15625 Z M 22.757812 12.496094 L 19.457031 22.726562 C 19.367188 23.007812 19.105469 23.199219 18.804688 23.199219 L 5.1875 23.199219 C 4.886719 23.199219 4.625 23.007812 4.535156 22.726562 L 1.234375 12.496094 C 1.164062 12.285156 1.203125 12.058594 1.332031 11.882812 C 1.460938 11.703125 1.664062 11.601562 1.886719 11.601562 C 3.71875 11.601562 5.402344 12.59375 6.292969 14.195312 C 6.308594 14.246094 6.324219 14.292969 6.335938 14.34375 C 6.304688 14.421875 6.28125 14.503906 6.253906 14.582031 C 6.21875 14.675781 6.183594 14.773438 6.15625 14.867188 C 6.128906 14.953125 6.101562 15.039062 6.078125 15.125 C 6.035156 15.296875 5.996094 15.46875 5.96875 15.644531 C 5.957031 15.695312 5.953125 15.746094 5.945312 15.796875 C 5.921875 15.96875 5.90625 16.136719 5.898438 16.308594 C 5.894531 16.34375 5.890625 16.382812 5.890625 16.421875 C 5.886719 16.625 5.890625 16.828125 5.90625 17.03125 C 5.910156 17.074219 5.914062 17.113281 5.917969 17.15625 C 5.9375 17.367188 5.964844 17.578125 6.007812 17.785156 C 6.28125 19.109375 6.609375 20.226562 7.015625 21.203125 L 7.046875 21.277344 C 7.28125 21.847656 7.671875 22.800781 8.410156 22.800781 L 8.492188 22.800781 L 8.566406 22.769531 C 9.210938 22.496094 9.453125 21.871094 9.613281 21.460938 C 9.722656 21.179688 9.820312 20.898438 9.914062 20.617188 C 10.148438 19.9375 10.367188 19.292969 10.757812 18.722656 C 10.800781 18.65625 10.859375 18.578125 10.925781 18.496094 C 11.28125 18.0625 11.945312 17.5 12.738281 17.976562 C 13.386719 18.363281 13.589844 19.136719 13.804688 19.960938 C 13.867188 20.203125 13.929688 20.441406 14.003906 20.664062 C 14.324219 21.65625 14.75 22.683594 15.464844 22.757812 C 15.859375 22.796875 16.214844 22.546875 16.519531 22.015625 C 17.027344 21.121094 17.246094 20.140625 17.453125 19.1875 L 17.527344 18.859375 C 17.601562 18.527344 17.683594 18.1875 17.765625 17.839844 C 17.800781 17.699219 17.824219 17.5625 17.847656 17.421875 C 17.855469 17.382812 17.859375 17.34375 17.863281 17.308594 C 17.878906 17.203125 17.890625 17.097656 17.902344 16.992188 C 17.90625 16.953125 17.90625 16.914062 17.910156 16.875 C 17.917969 16.761719 17.921875 16.652344 17.921875 16.539062 C 17.921875 16.511719 17.925781 16.480469 17.925781 16.449219 C 17.921875 16.160156 17.898438 15.867188 17.855469 15.582031 C 17.851562 15.566406 17.847656 15.554688 17.847656 15.539062 C 17.828125 15.414062 17.800781 15.285156 17.773438 15.160156 C 17.765625 15.132812 17.757812 15.105469 17.753906 15.078125 C 17.722656 14.960938 17.691406 14.84375 17.65625 14.726562 C 17.648438 14.703125 17.640625 14.683594 17.632812 14.660156 C 17.589844 14.523438 17.539062 14.386719 17.484375 14.25 L 17.507812 14.140625 C 18.09375 12.621094 19.578125 11.601562 21.210938 11.601562 L 22.105469 11.601562 C 22.328125 11.601562 22.53125 11.703125 22.660156 11.882812 C 22.789062 12.058594 22.828125 12.285156 22.757812 12.496094 Z M 22.757812 12.496094"/>
    <path d="M 23.199219 4.097656 L 17.546875 4.097656 C 14.914062 4.097656 12.4375 3.070312 10.574219 1.207031 L 9.484375 0.117188 C 9.480469 0.117188 9.480469 0.117188 9.480469 0.117188 C 9.449219 0.0820312 9.410156 0.0585938 9.367188 0.0390625 C 9.355469 0.0351562 9.34375 0.03125 9.332031 0.0273438 C 9.296875 0.0117188 9.257812 0.00390625 9.222656 0.00390625 C 9.214844 0.00390625 9.207031 0 9.199219 0 L 4.402344 0 C 4.179688 0 4 0.179688 4 0.398438 L 4 5.199219 C 4 6.609375 5.046875 7.773438 6.402344 7.96875 L 6.402344 9.3125 C 6.164062 9.449219 6 9.707031 6 10 C 6 10.441406 6.359375 10.800781 6.800781 10.800781 C 7.242188 10.800781 7.601562 10.441406 7.601562 10 C 7.601562 9.707031 7.4375 9.449219 7.199219 9.3125 L 7.199219 7.96875 C 8.554688 7.773438 9.601562 6.609375 9.601562 5.199219 L 9.601562 4.640625 C 11.523438 6.335938 14.046875 7.296875 16.640625 7.296875 L 23.199219 7.296875 C 23.421875 7.296875 23.601562 7.117188 23.601562 6.898438 L 23.601562 4.496094 C 23.601562 4.277344 23.421875 4.097656 23.199219 4.097656 Z M 19.847656 6.496094 L 19.046875 4.898438 L 20.367188 4.898438 L 21.304688 6.496094 Z M 18.152344 4.898438 L 18.953125 6.496094 L 17.449219 6.496094 L 16.625 4.855469 C 16.929688 4.882812 17.238281 4.898438 17.546875 4.898438 Z M 8.800781 0.800781 L 8.800781 1.199219 L 8 1.199219 C 7.78125 1.199219 7.601562 1.378906 7.601562 1.601562 C 7.601562 1.820312 7.78125 2 8 2 L 8.800781 2 L 8.800781 4.398438 L 4.800781 4.398438 L 4.800781 2 L 5.601562 2 C 5.820312 2 6 1.820312 6 1.601562 C 6 1.378906 5.820312 1.199219 5.601562 1.199219 L 4.800781 1.199219 L 4.800781 0.800781 Z M 6.800781 7.199219 C 5.699219 7.199219 4.800781 6.304688 4.800781 5.199219 L 8.800781 5.199219 C 8.800781 6.304688 7.902344 7.199219 6.800781 7.199219 Z M 9.601562 1.367188 L 10.007812 1.773438 C 11.570312 3.335938 13.535156 4.351562 15.667969 4.730469 L 16.550781 6.496094 C 13.9375 6.46875 11.410156 5.398438 9.601562 3.539062 Z M 22.800781 6.496094 L 22.230469 6.496094 L 21.296875 4.898438 L 22.800781 4.898438 Z M 22.800781 6.496094"/>
</svg>

<svg xmlns="http://www.w3.org/2000/svg" width="32" height="32" viewBox="0 0 24 24">
    <path d="M22.105 10.8h-.894c-1.77 0-3.39.997-4.207 2.532a5.487 5.487 0 0 0-.734-.918c-.38-.383-.786-.96-1.22-1.57C14.06 9.445 13.036 8 11.8 8c-1.198 0-2.187 1.5-3.14 2.95-.43.648-.832 1.26-1.207 1.66-.254.269-.465.562-.656.87a5.845 5.845 0 0 0-4.91-2.68c-.48 0-.918.223-1.2.61a1.456 1.456 0 0 0-.214 1.328l3.3 10.235c.2.613.766 1.027 1.414 1.027h13.618c.648 0 1.215-.414 1.414-1.027l3.3-10.23a1.48 1.48 0 0 0-1.414-1.941zm-14.07 2.356c.422-.449.844-1.09 1.293-1.77.758-1.152 1.703-2.585 2.473-2.585.82 0 1.761 1.332 2.597 2.504.45.64.88 1.242 1.305 1.672.434.437.77.953 1.008 1.507.027.059.047.121.07.18.047.117.09.238.125.363.016.055.035.11.051.164.043.164.078.329.102.496.011.06.015.114.023.172.02.141.031.286.035.43.004.043.008.086.008.125 0 .18-.008.36-.023.54-.004.046-.012.093-.016.14a5.575 5.575 0 0 1-.098.558c-.086.352-.168.696-.242 1.032l-.074.332c-.203.933-.399 1.816-.848 2.601-.168.301-.277.34-.273.344-.035-.008-.324-.121-.785-1.543-.07-.211-.13-.434-.188-.66-.234-.899-.5-1.914-1.43-2.469-1.043-.621-2.21-.246-3.05.98-.453.66-.7 1.387-.938 2.09-.094.27-.187.543-.289.809-.148.375-.273.66-.516.812-.09-.058-.27-.277-.57-1.007l-.031-.075c-.383-.93-.7-2.003-.961-3.273-.04-.18-.063-.36-.078-.54a4.845 4.845 0 0 1-.023-.656l.003-.074a5.35 5.35 0 0 1 .043-.437c.008-.059.016-.121.028-.184a5.922 5.922 0 0 1 .175-.703c.024-.062.043-.125.067-.183.035-.102.074-.203.117-.301a5.06 5.06 0 0 1 .91-1.39zm14.723-.66l-3.301 10.23a.681.681 0 0 1-.652.473H5.188a.681.681 0 0 1-.653-.472l-3.3-10.23a.673.673 0 0 1 .097-.614.674.674 0 0 1 .555-.281c1.832 0 3.515.992 4.406 2.593.016.051.031.098.043.149-.031.078-.055.16-.082.238a6.47 6.47 0 0 0-.176.543 5.84 5.84 0 0 0-.11.52c-.011.05-.015.101-.023.152a5.66 5.66 0 0 0-.047.512 1.032 1.032 0 0 0-.007.113c-.004.203 0 .406.015.61l.012.124c.02.211.047.422.09.63.273 1.323.601 2.44 1.008 3.417l.03.074c.235.57.626 1.524 1.364 1.524h.082l.074-.031c.645-.274.887-.899 1.047-1.31.11-.28.207-.562.301-.843.234-.68.453-1.324.844-1.894.043-.067.101-.145.168-.227.355-.433 1.02-.996 1.812-.52.649.387.852 1.16 1.067 1.985.062.242.125.48.199.703.32.992.746 2.02 1.46 2.094.395.039.75-.211 1.056-.742.507-.895.726-1.875.933-2.828l.074-.329c.075-.332.157-.672.239-1.02.035-.14.058-.276.082-.417.007-.04.011-.078.015-.113.016-.106.028-.211.04-.317.003-.039.003-.078.007-.117.008-.113.012-.223.012-.336 0-.027.004-.059.004-.09a6.436 6.436 0 0 0-.07-.867c-.004-.016-.008-.027-.008-.043a6.483 6.483 0 0 0-.075-.379c-.007-.027-.015-.055-.02-.082-.03-.117-.062-.234-.097-.351l-.023-.067a5.757 5.757 0 0 0-.149-.41l.024-.11a3.988 3.988 0 0 1 3.703-2.538h.894c.223 0 .426.101.555.28a.673.673 0 0 1 .098.614zm0 0"/>
    <path d="M23.2 4.098h-5.653a9.799 9.799 0 0 1-6.973-2.891L9.484.117H9.48A.327.327 0 0 0 9.367.04L9.332.027a.276.276 0 0 0-.11-.023C9.216.004 9.208 0 9.2 0H4.402A.401.401 0 0 0 4 .398V5.2a2.803 2.803 0 0 0 2.402 2.77v1.343a.796.796 0 0 0 .399 1.489.796.796 0 1 0 .398-1.488V7.968a2.803 2.803 0 0 0 2.403-2.77v-.558a10.69 10.69 0 0 0 7.039 2.656h6.558c.223 0 .403-.18.403-.399V4.496a.401.401 0 0 0-.403-.398zm-3.352 2.398l-.801-1.598h1.32l.938 1.598zm-1.696-1.598l.801 1.598H17.45l-.824-1.64c.305.027.613.042.922.042zM8.801.801v.398H8A.401.401 0 0 0 8 2h.8v2.398h-4V2h.802a.4.4 0 0 0 0-.8H4.8V.8zm-2 6.398c-1.102 0-2-.894-2-2h4c0 1.106-.899 2-2 2zm2.8-5.832l.407.406a10.598 10.598 0 0 0 5.66 2.957l.883 1.766C13.938 6.47 11.41 5.398 9.6 3.54zm13.2 5.13h-.57l-.934-1.599H22.8zm0 0"/>
</svg>
